X:230
T: Die verkaufte Mllerin (12a), S. 53
N: T0118
O: Luxemburg
S: Singendes Volk, Esch-Alzette 1937 posth.]
N: STRASSEN; gesungen von Frau Witry am 3.1.1933
R: "erzhlende Lieder"]
M: 4/4
L: 1/8
K: G
D2 | G2G2A2A2 | B2BAG2
G2 | B2A2B2c2 | d2dcB2
d2 | e2d2c2B2 | B3AA2
d2 | e2d2c2B2 | B3AA2

